svg/emoji_u1f6f8.svg

<svg width="128" height="128" xmlns="http://www.w3.org/2000/svg" xmlns:xlink="http://www.w3.org/1999/xlink"><linearGradient id="a" gradientTransform="matrix(.8759 -.0643 .068 .9265 -4.035 6.582)" gradientUnits="userSpaceOnUse" x1="70.948" x2="45.394" y1="66.12" y2="121.486"><stop offset="0" stop-color="#00eccc"/></linearGradient><path d="M30.94 52.47L6.38 101.52s77.44 25.32 77.06 24.13c-.38-1.19 10.23-52.44 10.23-52.44L30.94 52.47z" fill="url(#a)"/><linearGradient id="b" gradientTransform="rotate(15.225 63.014 55.05)" gradientUnits="userSpaceOnUse" x1="1.273" x2="125.073" y1="55.48" y2="55.48"><stop offset="0" stop-color="#8690bb"/></linearGradient><path d="M123.83 67.58c.21-4.72-22.68-24.05-22.68-24.05L36.19 25.84S6.76 30.93 4.54 35.1c-2.22 4.17 0 26.82 53.38 41.35s65.7-4.15 65.91-8.87z" fill="url(#b)"/><path d="M102.14 40.44C100.1 22.25 83.41 9.99 65.64 9.3c-11.13-.43-21.62 4.65-28.25 13.51-2.15 2.88-4.97 6.31-2.9 9.97 2.47 4.37 8.36 7.32 12.71 9.43 11.43 5.55 24.14 9.01 36.83 10.03 4.82.38 11.23.78 15.57-1.73 3.64-2.11 2.94-6.5 2.54-10.07z" fill="#505c70"/><defs><path id="c" d="M123.83 67.58c.21-4.72-22.68-24.05-22.68-24.05L36.19 25.84S6.76 30.93 4.54 35.1c-2.22 4.17.73 22.22 54.11 36.75s64.97.45 65.18-4.27z"/></defs><clipPath id="d"><use xlink:href="#c" overflow="visible"/></clipPath><radialGradient id="e" cx="39.873" cy="60.84" gradientTransform="matrix(1.0083 .2745 -.2627 .9649 37.508 -8.95)" gradientUnits="userSpaceOnUse" r="42.895"><stop offset=".228" stop-color="#00eccc"/></radialGradient><path d="M59.23 69.89C27.07 61.13 3.3 44.91 4.87 33.07c-.14.34-.27.68-.36 1.04-3.24 11.91 21 28.87 54.14 37.9 33.14 9.02 62.64 6.69 65.88-5.22.1-.36.17-.72.21-1.08-4.64 10.99-33.36 12.93-65.51 4.18z" clip-path="url(#d)" fill="url(#e)"/><radialGradient id="f" cx="-133.617" cy="-125.322" gradientTransform="matrix(.7567 .6538 -.4888 .5657 56.232 194.157)" gradientUnits="userSpaceOnUse" r="3.642"><stop offset=".065" stop-color="#00eccc"/></radialGradient><path d="M19.38 38.17c-.67.93-2.45.79-3.98-.31-1.53-1.1-2.22-2.75-1.55-3.68s2.45-.79 3.98.31c1.53 1.11 2.22 2.75 1.55 3.68z" fill="url(#f)"/><radialGradient id="g" cx="-120.128" cy="-123.568" gradientTransform="matrix(.7567 .6538 -.4888 .5657 56.8 193.656)" gradientUnits="userSpaceOnUse" r="3.642"><stop offset=".065" stop-color="#00eccc"/></radialGradient><path d="M29.3 47.48c-.67.93-2.45.79-3.98-.31-1.53-1.1-2.22-2.75-1.55-3.68s2.45-.79 3.98.31 2.22 2.75 1.55 3.68z" fill="url(#g)"/><radialGradient id="h" cx="-23.659" cy="-46.43" gradientTransform="matrix(.8594 .5113 -.3823 .6425 42.906 95.938)" gradientUnits="userSpaceOnUse" r="3.642"><stop offset=".065" stop-color="#00eccc"/></radialGradient><path d="M43.67 55.72c-.5 1.03-2.28 1.21-3.97.39-1.7-.82-2.67-2.32-2.17-3.35.5-1.03 2.28-1.21 3.97-.39s2.67 2.31 2.17 3.35z" fill="url(#h)"/><radialGradient id="i" cx="62.855" cy="43.713" gradientTransform="matrix(.9381 .3465 -.259 .7013 10.954 8.918)" gradientUnits="userSpaceOnUse" r="3.642"><stop offset=".065" stop-color="#00eccc"/></radialGradient><path d="M62.2 62.42c-.3 1.11-2.02 1.6-3.84 1.11-1.82-.49-3.05-1.79-2.75-2.9.3-1.11 2.02-1.6 3.84-1.11s3.05 1.8 2.75 2.9z" fill="url(#i)"/><radialGradient id="j" cx="101.034" cy="77.59" gradientTransform="matrix(.9578 .2876 -.215 .716 -2.595 -18.71)" gradientUnits="userSpaceOnUse" r="3.642"><stop offset=".065" stop-color="#00eccc"/></radialGradient><path d="M81.15 66.75c-.23 1.12-1.92 1.72-3.76 1.34-1.85-.38-3.15-1.6-2.92-2.72.23-1.12 1.92-1.72 3.76-1.34 1.85.38 3.16 1.6 2.92 2.72z" fill="url(#j)"/><radialGradient id="k" cx="144.19" cy="135.63" gradientTransform="matrix(.9824 .1869 -.1397 .7345 -28.593 -59.022)" gradientUnits="userSpaceOnUse" r="3.642"><stop offset=".065" stop-color="#00eccc"/></radialGradient><path d="M97.84 68.01c-.11 1.14-1.73 1.91-3.6 1.73-1.87-.19-3.3-1.27-3.19-2.41s1.73-1.91 3.6-1.73 3.3 1.26 3.19 2.41z" fill="url(#k)"/><radialGradient id="l" cx="203.091" cy="351.7" gradientTransform="matrix(.9856 -.169 .1263 .7369 -132.778 -159.106)" gradientUnits="userSpaceOnUse" r="3.642"><stop offset=".065" stop-color="#00eccc"/></radialGradient><path d="M115.48 64.86c.29 1.11-.95 2.4-2.77 2.88s-3.54-.03-3.83-1.14.95-2.4 2.77-2.88c1.83-.48 3.54.03 3.83 1.14z" fill="url(#l)"/><g><radialGradient id="m" cx="59.093" cy="42.535" gradientTransform="matrix(.8949 .4462 -.4304 .8633 27.943 -21.146)" gradientUnits="userSpaceOnUse" r="35.889"><stop offset="0" stop-color="#78ffec"/></radialGradient><path d="M102.91 38.11C100.67 20.45 83.73 8.38 65.85 7.52c-11.21-.54-21.7 4.28-28.29 12.8-2.14 2.77-4.93 6.07-2.81 9.64 2.53 4.26 8.5 7.19 12.89 9.28 11.56 5.5 24.39 9 37.17 10.12 4.85.42 11.31.88 15.65-1.51 3.64-2 2.89-6.27 2.45-9.74z" fill="url(#m)"/><path d="M78.25 15.37c.82.18 1.76.47 2.76.88 1 .41 2.07.93 3.17 1.57s2.23 1.39 3.34 2.26c1.11.86 2.21 1.84 3.25 2.92a29.6 29.6 0 0 1 2.92 3.53c.89 1.27 1.69 2.63 2.36 4.07.67 1.44 1.22 2.95 1.61 4.53.39 1.57.63 3.21.7 4.89.07 1.68-.04 3.41-.32 5.18 0 0-.02-.4-.15-1.14-.13-.74-.36-1.81-.82-3.16a27.91 27.91 0 0 0-2.18-4.8c-1.04-1.82-2.45-3.84-4.37-5.94-.85-.93-1.91-1.94-3.11-2.98a68.82 68.82 0 0 0-3.97-3.14c-1.41-1.03-2.87-2.04-4.28-2.98-1.41-.94-2.77-1.81-3.94-2.58-1.18-.77-2.17-1.45-2.85-2.02-.68-.57-1.04-1.02-.96-1.34.09-.32.63-.5 1.73-.48s2.78.23 5.11.73z" fill="#dcfffa" opacity=".48"/></g><g fill="#a3b0d6"><path d="M18.66 57.37l2.56 1.9c.44.38 1.32.99 1.37 1.57.19 2.02.01 2.7-.11 4.25-.13 1.69-4.41-2.96-5.32-6.4-.37-1.4.4-2.25 1.5-1.32zM100.44 79.63l-3.17.34c-.57.1-1.64.19-1.98.66-1.18 1.64-1.38 2.32-2.06 3.71-.75 1.53 5.31-.32 7.83-2.82 1.03-1 .8-2.14-.62-1.89zM60.43 75.2c-.33-.66-1.31-1.14-1.85-1.37-1.06-.46-2.35-.5-3.42-.02-.22.1-.39.28-.45.51-.32 1.26.57 4.95 2.19 4.9.74-.02 1.55-.91 2.07-1.37.59-.52 1.3-1.16 1.53-1.95.07-.25.04-.49-.07-.7z"/></g><g opacity=".2"><path d="M64.33 10.65c.51 0 1.04.01 1.55.04 8.31.4 16.37 3.37 22.68 8.35 6.59 5.2 10.58 11.99 11.55 19.62l.06.48c.23 1.77.49 3.79.05 5.05-.4 1.16-.06 2.45.87 3.25 12.72 11.02 19.17 18.18 19.89 20.31-.19.9-1.27 3.06-4.14 5.25-2.6 1.98-7.47 4.56-15.86 5.59-.72.09-1.38.43-1.86.97-.02.03-.05.05-.07.08-.44.41-1.03.81-1.66 1.15-.04-.09-.09-.18-.14-.26a2.993 2.993 0 0 0-2.59-1.49h-.06c-.52.01-1.05.02-1.59.02-9.17 0-20-1.62-32.19-4.81-.25-.07-.51-.1-.76-.1-.84 0-1.66.36-2.24 1-.21-1.1-1.02-2-2.11-2.32-12.7-3.68-23.21-8.1-31.26-13.15-.49-.31-1.04-.46-1.59-.46a2.95 2.95 0 0 0-1.83.63c-.34-.58-.62-1.18-.76-1.72-.06-.85-.47-1.64-1.15-2.17C8.54 47.74 6.69 40.24 7.26 37.07c.02-.11.04-.2.06-.26 1.78-1.52 11.66-4.53 27.52-7.47a2.99 2.99 0 0 0 2.39-2.33c.28-1.32 1.51-2.91 2.6-4.32l.28-.36c5.74-7.42 14.56-11.68 24.22-11.68m0-3c-10.57 0-20.34 4.76-26.59 12.85-1.37 1.77-2.99 3.76-3.44 5.89-6.73 1.25-27.72 5.39-29.58 8.89-.18.34-.33.78-.41 1.3-.68 3.78 1.06 12.49 12.95 21.75.01.17.03.35.09.54.78 2.93 4.01 6.76 5.02 6.76.17 0 .28-.11.3-.36.09-1.19.21-1.87.18-3.04 7.49 4.7 17.84 9.39 32.02 13.49.17 1.56.97 3.68 2.18 3.68h.04c.74-.02 1.55-.91 2.07-1.37.3-.26.62-.55.9-.87 13.54 3.55 24.35 4.91 32.95 4.91.56 0 1.11-.01 1.65-.02-.52.86-.76 1.5-1.24 2.48-.19.39.06.56.57.56 1.51 0 5.38-1.5 7.26-3.37.04-.04.07-.08.11-.12 16.63-2.04 22.01-10 22.6-13.36.03-.17.05-.32.05-.47.17-3.93-15.63-17.96-20.95-22.57.72-2.08.32-4.66.03-6.9C100.84 20.62 83.9 8.55 66.02 7.69c-.56-.02-1.13-.04-1.69-.04z" fill="#424242"/></g></svg>

<?xml version="1.0" encoding="UTF-8" standalone="no"?>
<!DOCTYPE svg PUBLIC "-//W3C//DTD SVG 1.1//EN" "http://www.w3.org/Graphics/SVG/1.1/DTD/svg11.dtd">
<svg width="100%" height="100%" viewBox="0 0 128 128" version="1.1" xmlns="http://www.w3.org/2000/svg" xmlns:xlink="http://www.w3.org/1999/xlink" xml:space="preserve" xmlns:serif="http://www.serif.com/" style="fill-rule:evenodd;clip-rule:evenodd;stroke-linejoin:round;stroke-miterlimit:2;">
    <path d="M30.94,52.47L6.38,101.52C6.38,101.52 83.82,126.84 83.44,125.65C83.06,124.46 93.67,73.21 93.67,73.21L30.94,52.47Z" style="fill:url(#_Linear1);fill-rule:nonzero;"/>
    <path d="M123.83,67.58C124.04,62.86 101.15,43.53 101.15,43.53L36.19,25.84C36.19,25.84 6.76,30.93 4.54,35.1C2.32,39.27 4.54,61.92 57.92,76.45C111.3,90.98 123.62,72.3 123.83,67.58Z" style="fill:rgb(101,147,162);fill-rule:nonzero;"/>
    <path d="M102.14,40.44C100.1,22.25 83.41,9.99 65.64,9.3C54.51,8.87 44.02,13.95 37.39,22.81C35.24,25.69 32.42,29.12 34.49,32.78C36.96,37.15 42.85,40.1 47.2,42.21C58.63,47.76 71.34,51.22 84.03,52.24C88.85,52.62 95.26,53.02 99.6,50.51C103.24,48.4 102.54,44.01 102.14,40.44Z" style="fill:rgb(80,92,112);fill-rule:nonzero;"/>
    <clipPath id="_clip2">
        <path d="M123.83,67.58C124.04,62.86 101.15,43.53 101.15,43.53L36.19,25.84C36.19,25.84 6.76,30.93 4.54,35.1C2.32,39.27 5.27,57.32 58.65,71.85C112.03,86.38 123.62,72.3 123.83,67.58Z"/>
    </clipPath>
    <g clip-path="url(#_clip2)">
        <path d="M59.23,69.89C27.07,61.13 3.3,44.91 4.87,33.07C4.73,33.41 4.6,33.75 4.51,34.11C1.27,46.02 25.51,62.98 58.65,72.01C91.79,81.03 121.29,78.7 124.53,66.79C124.63,66.43 124.7,66.07 124.74,65.71C120.1,76.7 91.38,78.64 59.23,69.89Z" style="fill:rgb(64,192,231);fill-rule:nonzero;"/>
    </g>
    <path d="M19.38,38.17C18.71,39.1 16.93,38.96 15.4,37.86C13.87,36.76 13.18,35.11 13.85,34.18C14.52,33.25 16.3,33.39 17.83,34.49C19.36,35.6 20.05,37.24 19.38,38.17Z" style="fill:rgb(64,192,231);fill-rule:nonzero;"/>
    <path d="M29.3,47.48C28.63,48.41 26.85,48.27 25.32,47.17C23.79,46.07 23.1,44.42 23.77,43.49C24.44,42.56 26.22,42.7 27.75,43.8C29.28,44.9 29.97,46.55 29.3,47.48Z" style="fill:rgb(64,192,231);fill-rule:nonzero;"/>
    <path d="M43.67,55.72C43.17,56.75 41.39,56.93 39.7,56.11C38,55.29 37.03,53.79 37.53,52.76C38.03,51.73 39.81,51.55 41.5,52.37C43.19,53.19 44.17,54.68 43.67,55.72Z" style="fill:rgb(64,192,231);fill-rule:nonzero;"/>
    <path d="M62.2,62.42C61.9,63.53 60.18,64.02 58.36,63.53C56.54,63.04 55.31,61.74 55.61,60.63C55.91,59.52 57.63,59.03 59.45,59.52C61.27,60.01 62.5,61.32 62.2,62.42Z" style="fill:rgb(64,192,231);fill-rule:nonzero;"/>
    <path d="M81.15,66.75C80.92,67.87 79.23,68.47 77.39,68.09C75.54,67.71 74.24,66.49 74.47,65.37C74.7,64.25 76.39,63.65 78.23,64.03C80.08,64.41 81.39,65.63 81.15,66.75Z" style="fill:rgb(64,192,231);fill-rule:nonzero;"/>
    <path d="M97.84,68.01C97.73,69.15 96.11,69.92 94.24,69.74C92.37,69.55 90.94,68.47 91.05,67.33C91.16,66.19 92.78,65.42 94.65,65.6C96.52,65.78 97.95,66.86 97.84,68.01Z" style="fill:rgb(64,192,231);fill-rule:nonzero;"/>
    <path d="M115.48,64.86C115.77,65.97 114.53,67.26 112.71,67.74C110.89,68.22 109.17,67.71 108.88,66.6C108.59,65.49 109.83,64.2 111.65,63.72C113.48,63.24 115.19,63.75 115.48,64.86Z" style="fill:rgb(64,192,231);fill-rule:nonzero;"/>
    <g>
        <path d="M102.91,38.11C100.67,20.45 83.73,8.38 65.85,7.52C54.64,6.98 44.15,11.8 37.56,20.32C35.42,23.09 32.63,26.39 34.75,29.96C37.28,34.22 43.25,37.15 47.64,39.24C59.2,44.74 72.03,48.24 84.81,49.36C89.66,49.78 96.12,50.24 100.46,47.85C104.1,45.85 103.35,41.58 102.91,38.11Z" style="fill:rgb(129,215,238);fill-rule:nonzero;"/>
    </g>
    <g>
        <path d="M18.66,57.37L21.22,59.27C21.66,59.65 22.54,60.26 22.59,60.84C22.78,62.86 22.6,63.54 22.48,65.09C22.35,66.78 18.07,62.13 17.16,58.69C16.79,57.29 17.56,56.44 18.66,57.37ZM100.44,79.63L97.27,79.97C96.7,80.07 95.63,80.16 95.29,80.63C94.11,82.27 93.91,82.95 93.23,84.34C92.48,85.87 98.54,84.02 101.06,81.52C102.09,80.52 101.86,79.38 100.44,79.63ZM60.43,75.2C60.1,74.54 59.12,74.06 58.58,73.83C57.52,73.37 56.23,73.33 55.16,73.81C54.94,73.91 54.77,74.09 54.71,74.32C54.39,75.58 55.28,79.27 56.9,79.22C57.64,79.2 58.45,78.31 58.97,77.85C59.56,77.33 60.27,76.69 60.5,75.9C60.57,75.65 60.54,75.41 60.43,75.2Z" style="fill:rgb(147,177,187);fill-rule:nonzero;"/>
    </g>
    <defs>
        <linearGradient id="_Linear1" x1="0" y1="0" x2="1" y2="0" gradientUnits="userSpaceOnUse" gradientTransform="matrix(-13.889,51.8998,-51.8998,-13.889,63.914,63.7198)"><stop offset="0" style="stop-color:rgb(64,192,231);stop-opacity:1"/><stop offset="1" style="stop-color:rgb(64,192,231);stop-opacity:0"/></linearGradient>
    </defs>
</svg>
